Sources/FrostedUI/Resources/Icons.xcassets/mobilePhoneSize24.imageset/mobile-phone-size-24.svg

<svg
  width="24"
  height="24"
  viewBox="0 0 24 24"
  fill="none"
  xmlns="http://www.w3.org/2000/svg"
  data-fui-icon="true"
>
  <path
    d="M9.75 19.25H14.25M8.75 22.25H15.25C16.9069 22.25 18.25 20.9069 18.25 19.25V4.75C18.25 3.09315 16.9069 1.75 15.25 1.75H8.75C7.09315 1.75 5.75 3.09315 5.75 4.75V19.25C5.75 20.9069 7.09315 22.25 8.75 22.25Z"
    stroke="currentColor"
    stroke-width="1.5"
    stroke-linecap="round"
    stroke-linejoin="round"
  />
</svg>

<svg xmlns="http://www.w3.org/2000/svg" width="24" height="24" fill="none" data-fui-icon="true" viewBox="0 0 24 24"><path stroke="currentColor" stroke-linecap="round" stroke-linejoin="round" stroke-width="1.5" d="M9.75 19.25h4.5m-5.5 3h6.5a3 3 0 0 0 3-3V4.75a3 3 0 0 0-3-3h-6.5a3 3 0 0 0-3 3v14.5a3 3 0 0 0 3 3"/></svg>
